assets/window-maximize.svg

<svg xmlns="http://www.w3.org/2000/svg" viewBox="0 0 512 512"><path d="M0 96v320c0 35.348 28.654 64 64 64h384c35.346 0 64-28.652 64-64V96c0-35.348-28.654-64-64-64H64C28.654 32 0 60.652 0 96Zm48 128h416v192c0 8.824-7.178 16-16 16H64c-8.822 0-16-7.176-16-16V224Z"/></svg>

<svg xmlns="http://www.w3.org/2000/svg" viewBox="0 0 512 512"><!-- Font Awesome Pro 6.0.0-alpha2 by @fontawesome - https://fontawesome.com License - https://fontawesome.com/license (Commercial License) --><path d="M0 96V416C0 451.348 28.654 480 64 480H448C483.346 480 512 451.348 512 416V96C512 60.652 483.346 32 448 32H64C28.654 32 0 60.652 0 96ZM48 224H464V416C464 424.824 456.822 432 448 432H64C55.178 432 48 424.824 48 416V224Z"/></svg>
